brandFactory_export/1.Light/Hamburguesa_1Light.svg

<?xml version="1.0" encoding="UTF-8"?>
<svg width="24px" height="24px" viewBox="0 0 24 24" version="1.1" xmlns="http://www.w3.org/2000/svg" xmlns:xlink="http://www.w3.org/1999/xlink">
    <title>1.Light/Hamburguesa_1Light</title>
    <g id="Symbols" stroke="none" stroke-width="1" fill="none" fill-rule="evenodd">
        <g id="1.Light/Hamburguesa_1Light" fill="#5CB615" fill-rule="nonzero">
            <path d="M22.4201681,7.15966387 C22.2823529,7.29747899 22.0672269,7.37478992 21.7714286,7.37478992 L13.3008403,7.37478992 L13.3008403,7.36134454 C13.005042,7.36134454 12.7865546,7.29411765 12.6554622,7.15966387 C12.5142857,7.01848739 12.4436975,6.78991597 12.4436975,6.47058824 C12.4436975,6.1512605 12.5142857,5.92268908 12.6554622,5.78151261 C12.789916,5.64369748 13.005042,5.57647059 13.3008403,5.57647059 L21.7647059,5.57647059 C22.0605042,5.57647059 22.2756303,5.64369748 22.4134454,5.78151261 C22.5546218,5.92268908 22.6252101,6.1512605 22.6252101,6.47058824 C22.6285714,6.78991597 22.5613445,7.01848739 22.4201681,7.15966387 L22.4201681,7.15966387 Z M21.3915966,13.6033613 C21.1428571,18.9210084 21.1327731,19.1865546 21.1327731,19.2134454 C21.1092437,21.8857143 20.507563,22.4739496 19.4756303,22.5815126 C19.4588235,22.5815126 19.4420168,22.5882353 19.4252101,22.5915966 L19.3747899,22.5915966 C19.2168067,22.605042 19.0722689,22.6016807 18.8470588,22.5915966 L16.0941176,22.5915966 C16.0168067,22.5983193 15.9361345,22.6016807 15.8487395,22.6016807 C15.6773109,22.6016807 15.5226891,22.5915966 15.3714286,22.5680672 C15.6605042,22.1310924 15.8218487,21.5831933 15.989916,20.9747899 L16.0638655,20.712605 C16.4907563,20.5915966 16.8605042,20.4 17.1529412,20.107563 C17.6638655,19.6 17.9226891,18.8672269 17.9226891,17.9361345 C17.9226891,17.005042 17.6638655,16.2756303 17.1529412,15.7647059 C17.1159664,15.7277311 17.0689076,15.7008403 17.0285714,15.6672269 C17.1865546,15.707563 17.3445378,15.7344538 17.5058824,15.7378151 L17.5462185,15.7378151 C18.1680672,15.7378151 18.7596639,15.4453782 19.3142857,14.8705882 C19.8789916,14.2789916 20.1613445,13.6504202 20.1478992,12.9882353 C20.1344538,12.3563025 19.8554622,11.7478992 19.3109244,11.1831933 C18.7663866,10.6184874 18.1815126,10.3294118 17.5731092,10.3193277 C16.9210084,10.3394958 16.3294118,10.605042 15.7647059,11.189916 C15.5058824,11.4588235 15.3142857,11.7378151 15.1764706,12.0235294 C14.7394958,11.4823529 14.1983193,11.0857143 13.5294118,10.8605042 C13.492437,9.81848739 13.4588235,8.94117647 13.4386555,8.40672269 L21.6336134,8.40672269 C21.5865546,9.37142857 21.4890756,11.492437 21.3915966,13.6033613 L21.3915966,13.6033613 Z M14.4705882,22.107563 C14.2756303,22.3428571 13.989916,22.4705882 13.5428571,22.5378151 C13.4890756,22.5478992 13.4453782,22.5579832 13.3848739,22.5647059 L12.2352941,22.5815126 C11.9462185,22.6016807 11.6638655,22.605042 11.3008403,22.5815126 L6.59495798,22.5815126 C6.44369748,22.594958 5.38487395,22.6016807 5.22016807,22.6016807 C3.68403361,22.6016807 3.36470588,22.1815126 2.94117647,20.8168067 L14.9915966,20.8168067 C14.8201681,21.4319328 14.6991597,21.8386555 14.4705882,22.107563 L14.4705882,22.107563 Z M15.9193277,13.0487395 C15.912605,12.6823529 16.097479,12.302521 16.4638655,11.9193277 C16.8268908,11.5428571 17.1865546,11.3512605 17.5394958,11.3512605 L17.5529412,11.3512605 C17.8957983,11.3579832 18.2521008,11.5462185 18.605042,11.912605 C18.9613445,12.2823529 19.1462185,12.6487395 19.1495798,13.0084034 C19.1563025,13.3781513 18.9747899,13.7579832 18.6084034,14.1411765 C18.2487395,14.5142857 17.8857143,14.702521 17.5394958,14.702521 L17.5193277,14.702521 C17.1798319,14.6957983 16.8235294,14.507563 16.4672269,14.1378151 C16.1109244,13.7680672 15.9294118,13.405042 15.9193277,13.0487395 L15.9193277,13.0487395 Z M2.43697479,19.7848739 C2.02016807,19.7344538 1.6907563,19.5966387 1.45546218,19.3613445 C1.14957983,19.0554622 0.994957983,18.5747899 0.994957983,17.9327731 C0.994957983,17.2907563 1.15294118,16.810084 1.45882353,16.5042017 C1.50588235,16.4571429 1.56302521,16.4201681 1.61680672,16.3798319 C1.75462185,16.810084 2,17.2268908 2.37983193,17.6235294 C2.96806723,18.2319328 3.59663866,18.5411765 4.25210084,18.5411765 L4.29243697,18.5411765 C4.93109244,18.5277311 5.54957983,18.2218487 6.12436975,17.6235294 C6.59831933,17.1327731 6.87394958,16.6084034 6.96806723,16.0672269 L15.2605042,16.0672269 C15.7781513,16.0907563 16.1848739,16.2352941 16.4571429,16.507563 C16.7663866,16.8134454 16.9243697,17.2941176 16.9243697,17.9361345 C16.9243697,18.5747899 16.7663866,19.0554622 16.4571429,19.3647059 C16.2252101,19.6 15.892437,19.7344538 15.4722689,19.7882353 L2.43697479,19.7882353 L2.43697479,19.7848739 Z M2.6487395,16.0672269 L5.94957983,16.0672269 C5.86218487,16.3394958 5.6907563,16.6184874 5.42184874,16.8941176 C5.03529412,17.2941176 4.6487395,17.502521 4.27226891,17.5092437 C3.91260504,17.5294118 3.48235294,17.3109244 3.08235294,16.8941176 C2.81680672,16.6184874 2.64537815,16.3428571 2.56134454,16.0739496 C2.56134454,16.0705882 2.56134454,16.0705882 2.55798319,16.0672269 L2.6487395,16.0672269 L2.6487395,16.0672269 Z M12.5613445,11.6941176 C12.9445378,11.7277311 13.2705882,11.8554622 13.5697479,12.0033613 C14.5176471,12.4739496 15.0722689,13.4285714 15.3579832,15.0352941 L2.56806723,15.0352941 C2.9512605,12.8504202 3.82184874,11.7848739 5.50252101,11.6806723 C5.78151261,11.6605042 6.62184874,11.6638655 6.62184874,11.6638655 L11.3310924,11.6638655 C11.3310924,11.6605042 12.2554622,11.6705882 12.5613445,11.6941176 L12.5613445,11.6941176 Z M16.9310924,4.54789916 L16.9310924,1.64369748 C16.9310924,1.30756303 17.1966387,1.03529412 17.5495798,1.03529412 C17.8756303,1.03529412 18.1378151,1.30756303 18.1378151,1.64369748 L18.1378151,4.55798319 L16.9310924,4.55798319 L16.9310924,4.54789916 L16.9310924,4.54789916 Z M21.7680672,4.54789916 C21.1092437,4.54117647 19.1327731,4.54789916 19.1327731,4.54789916 L19.1327731,1.64369748 C19.1327731,0.739495798 18.4235294,0.00336134454 17.5226891,0.00336134454 C16.6487395,0.00336134454 15.9394958,0.739495798 15.9394958,1.64369748 L15.9394958,4.54789916 L13.3042017,4.54789916 C12.7428571,4.54789916 12.292437,4.71596639 11.9663866,5.04201681 C11.6268908,5.38487395 11.4521008,5.86554622 11.4521008,6.47394958 C11.4521008,7.08235294 11.6268908,7.56302521 11.9663866,7.90588235 C12.1008403,8.04033613 12.2621849,8.13781513 12.4369748,8.21848739 C12.4504202,8.55462185 12.4739496,9.22016807 12.5243697,10.6319328 L6.66218487,10.6319328 C6.66218487,10.6319328 5.94285714,10.6386555 5.70420168,10.6487395 C5.58991597,10.6521008 5.37142857,10.6621849 5.2605042,10.6722689 C3.09579832,10.8907563 1.94957983,12.4033613 1.53613445,15.2638655 C1.24705882,15.3882353 0.988235294,15.5495798 0.773109244,15.7647059 C0.262184874,16.2756303 0.00672268908,17.0084034 0.00672268908,17.9361345 C0.00672268908,18.8672269 0.265546218,19.5966387 0.776470588,20.107563 C1.07226891,20.4033613 1.44537815,20.594958 1.8789916,20.7159664 C2.39327731,22.4773109 2.81344538,23.6235294 5.22689076,23.6235294 L15.8453782,23.6235294 L16.1310924,23.6201681 L18.8168067,23.6201681 L19.1294118,23.6235294 C19.1764706,23.6201681 19.4151261,23.6201681 19.4151261,23.6201681 L19.5394958,23.6201681 C19.5394958,23.6201681 19.6537815,23.6268908 19.6907563,23.6235294 C21.8218487,23.4991597 22.1176471,21.3243697 22.1344538,19.2336134 C22.1378151,19.1260504 22.2655462,16.4033613 22.3932773,13.6537815 C22.5579832,10.0773109 22.6218487,8.73277311 22.6453782,8.21848739 C22.8235294,8.13781513 22.9848739,8.04033613 23.1159664,7.90588235 C23.4588235,7.56302521 23.6336134,7.08235294 23.6336134,6.47394958 C23.6336134,5.86554622 23.4588235,5.38151261 23.1159664,5.03865546 C22.8907563,4.81680672 22.605042,4.67226891 22.2655462,4.60168067 C22.2554622,4.60168067 21.892437,4.54789916 21.7680672,4.54789916 Z" id="Hamburguesa_1Light"></path>
        </g>
    </g>
</svg>

<svg width="24" height="24" viewBox="0 0 24 24" xmlns="http://www.w3.org/2000/svg"><path d="M22.42 7.16c-.138.137-.353.215-.649.215h-8.47V7.36c-.296 0-.514-.067-.646-.201-.14-.142-.211-.37-.211-.69 0-.319.07-.547.211-.688.135-.138.35-.206.646-.206h8.464c.296 0 .51.068.648.206.142.14.212.37.212.689.004.319-.064.547-.205.689zm-1.028 6.443a1131.34 1131.34 0 00-.26 5.61c-.023 2.673-.624 3.26-1.656 3.369-.017 0-.034.006-.05.01h-.051c-.158.013-.303.01-.528 0h-2.753a3.069 3.069 0 01-.723-.024c.29-.437.45-.985.619-1.593l.074-.262c.427-.121.797-.313 1.089-.605.51-.508.77-1.24.77-2.172 0-.931-.26-1.66-.77-2.171-.037-.037-.084-.064-.124-.098a2.1 2.1 0 00.477.07h.04c.622 0 1.214-.292 1.768-.866.565-.592.847-1.22.834-1.883-.014-.632-.293-1.24-.837-1.805-.545-.565-1.13-.854-1.738-.864-.652.02-1.244.286-1.808.87-.26.27-.45.549-.589.835a3.531 3.531 0 00-1.647-1.163c-.037-1.043-.07-1.92-.09-2.454h8.195c-.047.964-.145 3.085-.242 5.196zm-6.921 8.505c-.195.235-.481.363-.928.43-.054.01-.098.02-.158.027l-1.15.017c-.289.02-.571.023-.934 0H6.595c-.151.013-1.21.02-1.375.02-1.536 0-1.855-.42-2.279-1.785h12.05c-.17.615-.292 1.022-.52 1.29zm1.448-9.06c-.006-.366.178-.745.545-1.129.363-.376.723-.568 1.075-.568h.014c.343.007.7.195 1.052.562.356.37.541.736.545 1.095.006.37-.175.75-.542 1.133-.36.373-.722.562-1.069.562h-.02c-.34-.007-.695-.195-1.052-.565-.356-.37-.538-.733-.548-1.09zM2.437 19.786c-.417-.05-.746-.188-.982-.424-.305-.306-.46-.786-.46-1.428 0-.642.158-1.123.464-1.429.047-.047.104-.084.158-.124.138.43.383.847.763 1.244.588.608 1.217.917 1.872.917h.04c.64-.013 1.258-.32 1.832-.917.474-.491.75-1.016.844-1.557h8.293c.517.024.924.168 1.196.44.31.306.467.787.467 1.43 0 .638-.158 1.118-.467 1.428-.232.235-.565.37-.985.423H2.437v-.003zm.212-3.718h3.3c-.087.272-.258.551-.527.827-.387.4-.773.609-1.15.615-.36.02-.79-.198-1.19-.615-.265-.276-.437-.551-.52-.82 0-.003 0-.003-.004-.007h.09zm9.912-4.373c.384.034.71.161 1.009.31.948.47 1.502 1.425 1.788 3.031H2.568c.383-2.185 1.254-3.25 2.935-3.354.279-.02 1.119-.017 1.119-.017h4.71c0-.003.923.007 1.23.03zm4.37-7.146V1.644c0-.336.266-.609.619-.609.326 0 .588.273.588.609v2.914H16.93v-.01zm4.837 0c-.659-.007-2.635 0-2.635 0V1.644c0-.905-.71-1.64-1.61-1.64-.874 0-1.584.735-1.584 1.64v2.904h-2.635c-.561 0-1.012.168-1.338.494-.34.343-.514.824-.514 1.432s.175 1.089.514 1.432c.135.134.296.232.471.312l.087 2.414H6.662s-.72.007-.958.017a9.55 9.55 0 00-.443.023c-2.165.219-3.311 1.731-3.725 4.592-.289.124-.548.286-.763.5-.51.512-.766 1.244-.766 2.172 0 .931.259 1.66.77 2.172.295.295.668.487 1.102.608.514 1.761.934 2.908 3.348 2.908h10.618l.286-.004h2.686l.312.004c.047-.004.286-.004.286-.004h.124s.115.007.152.004c2.13-.125 2.427-2.3 2.443-4.39.004-.108.132-2.83.26-5.58.164-3.577.228-4.921.251-5.436.179-.08.34-.178.471-.312.343-.343.518-.824.518-1.432s-.175-1.092-.518-1.435a1.666 1.666 0 00-.85-.437c-.01 0-.374-.054-.498-.054z" fill="#5CB615" fill-rule="nonzero"/></svg>
